static/assets/img/icons/theme/communication/flag.svg

<svg height="24" viewBox="0 0 24 24" width="24" xmlns="http://www.w3.org/2000/svg"><g fill="none" fill-rule="evenodd"><path d="m0 0h24v24h-24z" opacity="0"/><g fill="#000"><path d="m3.5 3h1.5v16.5c0 .8284271-.67157288 1.5-1.5 1.5-.82842712 0-1.5-.6715729-1.5-1.5v-15c0-.82842712.67157288-1.5 1.5-1.5z"/><path d="m6.99987583 2.99995344 12.75477117.00003959c.5522847.00000171.9999986.44771835.9999969 1.0000031-.0000008.24704071-.0914444.48533772-.2567059.66896163l-2.997938 3.33104224 2.9979317 3.3310353c.3694591.41051.3361806 1.0427998-.0743294 1.4122588-.1836247.1652623-.4219229.2567059-.6689647.2567059h-12.75476177z" opacity=".3"/></g></g></svg>

<svg width="24px" height="24px" viewBox="0 0 24 24" version="1.1" xmlns="http://www.w3.org/2000/svg" xmlns:xlink="http://www.w3.org/1999/xlink">
    <title>Icon For Flag</title>
    <g stroke="none" stroke-width="1" fill="none" fill-rule="evenodd">
        <rect opacity="0" x="0" y="0" width="24" height="24"></rect>
        <path d="M3.5,3 L5,3 L5,19.5 C5,20.3284271 4.32842712,21 3.5,21 L3.5,21 C2.67157288,21 2,20.3284271 2,19.5 L2,4.5 C2,3.67157288 2.67157288,3 3.5,3 Z" fill="#000000"></path>
        <path d="M6.99987583,2.99995344 L19.754647,2.99999303 C20.3069317,2.99999474 20.7546456,3.44771138 20.7546439,3.99999613 C20.7546431,4.24703684 20.6631995,4.48533385 20.497938,4.66895776 L17.5,8 L20.4979317,11.3310353 C20.8673908,11.7415453 20.8341123,12.3738351 20.4236023,12.7432941 C20.2399776,12.9085564 20.0016794,13 19.7546376,13 L6.99987583,13 L6.99987583,2.99995344 Z" fill="#000000" opacity="0.3"></path>
    </g>
</svg>
